water-opacity.svg

<svg fill="currentColor" viewBox="0 0 24 24"><path d="M16 14v-2h1.61c.24.71.39 1.39.39 2zm-.42-6c-.46-.71-.93-1.39-1.38-2H14v2zm.42 4v-2h-2v2zm0-3.32V10h.74c-.24-.44-.48-.89-.74-1.32M12 16v-2h2v-2h-2v-2h2V8h-2V6h2v-.27c-1.1-1.47-2-2.48-2-2.48S6 10 6 14c0 3.31 2.69 6 6 6v-2h2v-2zm2 3.65c.75-.26 1.42-.65 2-1.19V18h-2zM14 16h2v-2h-2zm2 2h.46c.54-.58.93-1.25 1.19-2H16z"/></svg>

<svg  viewBox="0 0 24 24" fill="currentColor"><path  d="M16 14V12H17.61C17.85 12.71 18 13.39 18 14H16M15.58 8C15.12 7.29 14.65 6.61 14.2 6H14V8H15.58M16 12V10H14V12H16M16 8.68V10H16.74C16.5 9.56 16.26 9.11 16 8.68M12 16V14H14V12H12V10H14V8H12V6H14V5.73C12.9 4.26 12 3.25 12 3.25S6 10 6 14C6 17.31 8.69 20 12 20V18H14V16H12M14 19.65C14.75 19.39 15.42 19 16 18.46V18H14V19.65M14 16H16V14H14V16M16 18H16.46C17 17.42 17.39 16.75 17.65 16H16V18Z"/></svg>
